school977/img/kids.svg

<svg width="25" height="25" viewBox="0 0 25 25" fill="none" xmlns="http://www.w3.org/2000/svg">
<path d="M9.77753 3.88918C9.78619 3.78737 9.79903 3.68645 9.79903 3.5828C9.79903 1.60714 8.19189 0 6.21622 0C4.24056 0 2.63342 1.60714 2.63342 3.5828C2.63342 3.68645 2.64626 3.78732 2.65492 3.88918C1.68025 4.37082 1.04102 5.36699 1.04102 6.46895V7.1656C1.04102 7.31643 1.12616 7.45407 1.26106 7.5217C1.31744 7.54971 1.37845 7.56369 1.4391 7.56369C1.52345 7.56369 1.60784 7.53687 1.67781 7.48398L3.27017 6.28971L2.79276 5.65292L1.83953 6.36744C1.87337 5.68242 2.24862 5.06554 2.81943 4.70616C3.11013 5.58907 3.73329 6.333 4.58326 6.76752H3.82764H3.23399C2.70373 6.76752 2.2314 7.12361 2.0856 7.63366L1.45428 9.84295C1.42005 9.96308 1.44418 10.0922 1.51922 10.1921C1.59466 10.2916 1.71244 10.3503 1.83724 10.3503V11.8972L1.41582 13.7162C1.29609 14.0412 1.31709 14.4016 1.47528 14.711C1.61163 14.9775 1.84113 15.1778 2.11392 15.289L1.46553 16.9748C1.4185 17.0972 1.43483 17.2352 1.50907 17.3433C1.58331 17.4514 1.70617 17.5159 1.83719 17.5159H3.42955V22.047C3.18488 22.327 3.03146 22.6888 3.03146 23.0892V23.4873C3.03146 23.7073 3.20951 23.8853 3.42955 23.8853H5.81809C6.03813 23.8853 6.21618 23.7073 6.21618 23.4873C6.21618 23.7073 6.39422 23.8853 6.61426 23.8853H9.0028C9.22284 23.8853 9.40089 23.7073 9.40089 23.4873V23.0892C9.40089 22.6889 9.24747 22.327 9.0028 22.047V17.5159H10.5952C10.7262 17.5159 10.849 17.4514 10.9233 17.3433C10.9975 17.2352 11.0138 17.0972 10.9668 16.9748L10.3184 15.289C10.5916 15.1775 10.8209 14.9773 10.9571 14.711C11.1153 14.4016 11.1363 14.0412 11.0165 13.7162L10.5951 11.8972V10.3503C10.7199 10.3503 10.8377 10.2916 10.9131 10.1921C10.9882 10.0922 11.0123 9.96308 10.9781 9.84295L10.3467 7.63366C10.2009 7.12361 9.72856 6.76752 9.19831 6.76752H8.60466H7.84904C8.69901 6.333 9.32217 5.58907 9.61287 4.70621C10.1837 5.06563 10.559 5.68252 10.5928 6.36749L9.63954 5.65297L9.16213 6.28976L10.7545 7.48403C10.8245 7.53692 10.9085 7.56374 10.9932 7.56374C11.0539 7.56374 11.1149 7.54976 11.1712 7.52174C11.3061 7.45412 11.3913 7.31648 11.3913 7.16565V6.469C11.3913 5.36699 10.7521 4.37082 9.77753 3.88918ZM6.21618 0.796178C7.59441 0.796178 8.73931 1.80334 8.96105 3.11953C8.40298 2.96417 7.95433 2.52543 7.80818 1.93989L7.79614 1.89247C7.76116 1.75368 7.65387 1.64446 7.51584 1.60674C7.37899 1.56787 7.23051 1.60714 7.12904 1.709L6.13422 2.70382C5.82859 3.0094 5.40522 3.18471 4.97334 3.18471H3.46135C3.65562 1.83668 4.8153 0.796178 6.21618 0.796178ZM2.85148 7.85216C2.89969 7.68227 3.05714 7.56369 3.23404 7.56369H3.4296V9.55414H2.36516L2.85148 7.85216ZM2.18398 14.3483C2.12486 14.2325 2.11864 14.1019 2.16726 13.9805C2.17462 13.9619 2.18084 13.9424 2.18552 13.9226L2.62327 12.0325C2.62989 12.0029 2.63337 11.973 2.63337 11.9427V10.3503H3.42955V11.8683L2.40114 14.5422C2.30992 14.5014 2.231 14.4399 2.18398 14.3483ZM3.82764 23.0892C3.82764 22.6503 4.18492 22.293 4.62382 22.293C5.06271 22.293 5.42 22.6503 5.42 23.0892H3.82764ZM4.22573 21.5533V17.5159H5.02191V21.5533C4.89392 21.5201 4.7621 21.4968 4.62382 21.4968C4.48553 21.4968 4.35371 21.5201 4.22573 21.5533ZM6.61426 22.047C6.36959 22.327 6.21618 22.6888 6.21618 23.0892C6.21618 22.6889 6.06276 22.327 5.81809 22.047V17.5159H6.61426V22.047ZM7.01235 23.0892C7.01235 22.6503 7.36964 22.293 7.80853 22.293C8.24742 22.293 8.60471 22.6503 8.60471 23.0892H7.01235ZM7.41044 21.5533V17.5159H8.20662V21.5533C8.07864 21.5201 7.94682 21.4968 7.80853 21.4968C7.67025 21.4968 7.53843 21.5201 7.41044 21.5533ZM9.0028 7.56369H9.19836C9.37526 7.56369 9.53271 7.68227 9.58092 7.85216L10.0672 9.55414H9.0028V7.56369ZM9.0028 10.3503H9.79898V11.9427C9.79898 11.973 9.80246 12.0029 9.80908 12.0325L10.2468 13.9226C10.2515 13.9424 10.2577 13.9619 10.2651 13.9805C10.3137 14.1019 10.3075 14.2325 10.2484 14.3483C10.2015 14.4396 10.1226 14.5011 10.0312 14.5422L9.00275 11.8684V10.3503H9.0028ZM10.0155 16.7197H2.41686L4.10098 12.3408H8.33147L10.0155 16.7197ZM8.20662 7.56369V11.5446H4.22573V7.56369H4.62382V9.55414C4.62382 9.77418 4.80186 9.95223 5.02191 9.95223H7.41044C7.63049 9.95223 7.80853 9.77418 7.80853 9.55414V7.56369H8.20662ZM5.42 9.15605V7.89938C5.67438 8.00408 5.94503 8.05742 6.21618 8.05742C6.48732 8.05742 6.75797 8.00403 7.01235 7.89938V9.15605H5.42ZM7.26076 6.16496C7.11068 6.22601 7.01235 6.37176 7.01235 6.53389V6.97935C6.54559 7.34783 5.88676 7.34783 5.42 6.97935V6.53389C5.42 6.37176 5.32162 6.22597 5.17159 6.16496C4.23857 5.78687 3.59814 4.95392 3.45931 3.98089H4.97329C5.62446 3.98089 6.23678 3.72741 6.69707 3.26672L7.25802 2.70611C7.60919 3.35579 8.24195 3.81006 8.97613 3.93944C8.84968 4.92994 8.20682 5.7816 7.26076 6.16496Z" fill="white"/>
<path d="M22.9297 9.84293L22.2984 7.63364C22.1526 7.12359 21.6802 6.7675 21.15 6.7675H20.5563H19.8072C20.9976 6.15678 21.7506 4.93958 21.7506 3.58279C21.7506 1.60713 20.1435 0 18.1678 0C16.1921 0 14.585 1.60713 14.585 3.58279C14.585 4.93958 15.3381 6.15678 16.5284 6.7675H15.7793H15.1856C14.6554 6.7675 14.183 7.12359 14.0372 7.63364L13.4059 9.84293C13.3716 9.96305 13.3958 10.0921 13.4708 10.1921C13.5463 10.2916 13.664 10.3503 13.7888 10.3503V11.9143L13.6198 13.0969C13.5471 13.6078 13.6991 14.1244 14.0373 14.5143C14.2667 14.7785 14.5685 14.9585 14.8982 15.0521L14.5897 17.0572C14.5719 17.1723 14.6053 17.2889 14.6811 17.3772C14.7565 17.4654 14.8669 17.5159 14.9832 17.5159H15.3812V22.047C15.1366 22.327 14.9832 22.6888 14.9832 23.0892V23.4873C14.9832 23.7073 15.1612 23.8853 15.3812 23.8853H17.7698C17.9898 23.8853 18.1679 23.7073 18.1679 23.4873C18.1679 23.7073 18.3459 23.8853 18.5659 23.8853H20.9545C21.1745 23.8853 21.3526 23.7073 21.3526 23.4873V23.0892C21.3526 22.6889 21.1992 22.327 20.9545 22.047V17.5158H21.3526C21.4688 17.5158 21.5792 17.4653 21.6546 17.3771C21.7304 17.2888 21.7638 17.1722 21.746 17.0571L21.4375 15.052C21.7672 14.9585 22.069 14.7784 22.2984 14.5142C22.6366 14.1243 22.7887 13.6076 22.716 13.0964L22.5469 11.9142V10.3502C22.6717 10.3502 22.7895 10.2915 22.8649 10.192C22.9399 10.0921 22.964 9.96305 22.9297 9.84293ZM20.1583 7.56363V7.74864L19.4127 8.2455L18.9047 7.73749L19.4263 7.56363H20.1583ZM18.1679 0.796127C19.5461 0.796127 20.691 1.80329 20.9127 3.11947C20.3547 2.96412 19.906 2.52537 19.7599 1.93983L19.7478 1.89241C19.7128 1.75363 19.6056 1.6444 19.4675 1.60668C19.3307 1.56782 19.1822 1.60708 19.0807 1.70894L18.0859 2.70377C17.7803 3.00935 17.3569 3.18466 16.925 3.18466H15.4131C15.6073 1.83663 16.767 0.796127 18.1679 0.796127ZM15.411 3.98083H16.925C17.5762 3.98083 18.1885 3.72735 18.6487 3.26666L19.2097 2.70606C19.5609 3.35574 20.1936 3.81 20.9278 3.93938C20.8013 4.92983 20.1585 5.78154 19.2124 6.16485C19.0624 6.2259 18.964 6.37165 18.964 6.53377V6.87872L18.1679 7.14409L17.3717 6.87872V6.53377C17.3717 6.37165 17.2733 6.22585 17.1233 6.16485C16.1903 5.78681 15.5498 4.95381 15.411 3.98083ZM16.1774 7.56363H16.9095L17.431 7.73749L16.923 8.2455L16.1774 7.74864V7.56363ZM16.1774 8.70554L16.7528 9.0891C16.9102 9.19484 17.1206 9.17385 17.2551 9.03934L18.1679 8.12652L19.0807 9.03934C19.1577 9.11632 19.2596 9.15598 19.3622 9.15598C19.4388 9.15598 19.5157 9.13419 19.583 9.0891L20.1584 8.70554V11.5445H18.566V8.75789H17.7699V11.5445H16.1775V8.70554H16.1774ZM15.3812 11.9123L15.0203 14.2582C14.8755 14.2008 14.7434 14.1128 14.6387 13.9926C14.4521 13.7768 14.3678 13.4915 14.4082 13.2092L14.5812 11.999C14.5839 11.9804 14.5851 11.9613 14.5851 11.9426V10.3503H15.3812V11.9123ZM15.3812 9.55407H14.3168L14.8031 7.85209C14.8513 7.68221 15.0088 7.56363 15.1857 7.56363H15.3812V9.55407ZM15.7793 23.0891C15.7793 22.6502 16.1366 22.2929 16.5755 22.2929C17.0144 22.2929 17.3717 22.6502 17.3717 23.0891H15.7793ZM16.1774 21.5532V17.5158H16.9736V21.5532C16.8456 21.52 16.7138 21.4967 16.5755 21.4967C16.4372 21.4967 16.3054 21.52 16.1774 21.5532ZM18.5659 22.0469C18.3213 22.3269 18.1679 22.6887 18.1679 23.0891C18.1679 22.6888 18.0144 22.3269 17.7698 22.0469V17.5158H18.5659V22.0469ZM18.964 23.0891C18.964 22.6502 19.3213 22.2929 19.7602 22.2929C20.1991 22.2929 20.5564 22.6502 20.5564 23.0891H18.964ZM19.3621 21.5532V17.5158H20.1583V21.5532C20.0303 21.52 19.8985 21.4967 19.7602 21.4967C19.6219 21.4967 19.4901 21.52 19.3621 21.5532ZM18.5659 16.7197V14.3311H17.7698V16.7197H15.4473L16.1208 12.3407H20.2148L20.8883 16.7197H18.5659ZM21.697 13.9925C21.5924 14.1128 21.4602 14.2007 21.3154 14.2581L20.9545 11.9122V10.3502H21.7507V11.9426C21.7507 11.9613 21.7518 11.9803 21.7545 11.999L21.9276 13.2088C21.968 13.4914 21.8836 13.7767 21.697 13.9925ZM20.9545 9.55407V7.56363H21.15C21.3269 7.56363 21.4844 7.68221 21.5326 7.85209L22.0189 9.55407H20.9545Z" fill="white"/>
</svg>

<svg width="25" height="25" fill="none" xmlns="http://www.w3.org/2000/svg"><path d="M9.778 3.89c.008-.103.021-.204.021-.307A3.587 3.587 0 0 0 6.216 0a3.587 3.587 0 0 0-3.583 3.583c0 .103.013.204.022.306A2.888 2.888 0 0 0 1.04 6.47v.697a.398.398 0 0 0 .637.318L3.27 6.29l-.477-.637-.953.714c.033-.685.409-1.301.98-1.66.29.882.913 1.626 1.763 2.06H3.234a1.2 1.2 0 0 0-1.148.867l-.632 2.209a.4.4 0 0 0 .383.507v1.547l-.421 1.82c-.12.324-.099.685.06.994.136.266.365.467.638.578l-.648 1.686a.399.399 0 0 0 .371.54H3.43v4.532c-.245.28-.399.642-.399 1.042v.398c0 .22.179.398.399.398h2.388c.22 0 .398-.178.398-.398 0 .22.178.398.398.398h2.389c.22 0 .398-.178.398-.398v-.398c0-.4-.154-.762-.398-1.042v-4.531h1.592a.398.398 0 0 0 .372-.541l-.649-1.686c.274-.111.503-.312.64-.578.157-.31.178-.67.059-.995l-.422-1.819V10.35a.4.4 0 0 0 .383-.507l-.631-2.21a1.2 1.2 0 0 0-1.149-.865H7.85a3.559 3.559 0 0 0 1.764-2.062c.57.36.946.977.98 1.661l-.953-.714-.478.637 1.592 1.194a.395.395 0 0 0 .417.038.398.398 0 0 0 .22-.356v-.697c0-1.102-.639-2.098-1.613-2.58zM6.216.795A2.79 2.79 0 0 1 8.961 3.12a1.635 1.635 0 0 1-1.153-1.18l-.012-.048a.397.397 0 0 0-.667-.183l-.995.995c-.305.305-.729.48-1.16.48H3.46A2.789 2.789 0 0 1 6.216.797zM2.851 7.852a.399.399 0 0 1 .383-.288h.196v1.99H2.365l.486-1.702zm-.667 6.496a.44.44 0 0 1-.017-.368.422.422 0 0 0 .019-.057l.437-1.89a.41.41 0 0 0 .01-.09V10.35h.797v1.518L2.4 14.542a.432.432 0 0 1-.217-.194zm1.644 8.741a.797.797 0 0 1 1.592 0H3.828zm.398-1.536v-4.037h.796v4.037a1.577 1.577 0 0 0-.398-.056c-.138 0-.27.023-.398.056zm2.388.494c-.244.28-.398.642-.398 1.042 0-.4-.153-.762-.398-1.042v-4.531h.796v4.531zm.398 1.042a.797.797 0 0 1 1.593 0H7.012zm.398-1.536v-4.037h.797v4.037a1.576 1.576 0 0 0-.398-.056c-.139 0-.27.023-.399.056zm1.593-13.99h.195c.177 0 .335.12.383.29l.486 1.701H9.003v-1.99zm0 2.787h.796v1.593c0 .03.003.06.01.09l.438 1.89c.005.02.01.039.018.057a.44.44 0 0 1-.017.368.434.434 0 0 1-.217.194l-1.028-2.674V10.35zm1.012 6.37H2.417L4.1 12.34h4.23l1.684 4.38zM8.207 7.564v3.98H4.226v-3.98h.398v1.99c0 .22.178.398.398.398H7.41c.22 0 .399-.178.399-.398v-1.99h.398zM5.42 9.156V7.9a2.093 2.093 0 0 0 1.592 0v1.257H5.42zm1.84-2.991a.398.398 0 0 0-.248.369v.445a1.285 1.285 0 0 1-1.592 0v-.445a.398.398 0 0 0-.248-.369 2.774 2.774 0 0 1-1.713-2.184h1.514a2.42 2.42 0 0 0 1.724-.714l.561-.56a2.43 2.43 0 0 0 1.718 1.232 2.772 2.772 0 0 1-1.715 2.226zM22.93 9.843l-.632-2.21a1.2 1.2 0 0 0-1.148-.865h-1.343a3.566 3.566 0 0 0 1.944-3.185A3.587 3.587 0 0 0 18.168 0a3.587 3.587 0 0 0-3.583 3.583c0 1.357.753 2.574 1.943 3.184h-1.342a1.2 1.2 0 0 0-1.149.867l-.631 2.209a.4.4 0 0 0 .383.507v1.564l-.17 1.183a1.78 1.78 0 0 0 .418 1.417c.23.264.531.445.861.538l-.308 2.005a.397.397 0 0 0 .393.459h.398v4.531c-.244.28-.398.642-.398 1.042v.398c0 .22.178.398.398.398h2.389c.22 0 .398-.178.398-.398 0 .22.178.398.398.398h2.389c.22 0 .398-.178.398-.398v-.398c0-.4-.154-.762-.399-1.042v-4.531h.399a.397.397 0 0 0 .393-.459l-.308-2.005c.33-.093.631-.274.86-.538.339-.39.49-.906.418-1.418l-.17-1.182V10.35a.4.4 0 0 0 .384-.507zm-2.772-2.28v.186l-.745.497-.508-.509.521-.173h.732zM18.168.797a2.79 2.79 0 0 1 2.745 2.323 1.635 1.635 0 0 1-1.153-1.18l-.012-.047a.397.397 0 0 0-.667-.183l-.995.995c-.306.305-.73.48-1.161.48h-1.512A2.789 2.789 0 0 1 18.168.797zM15.41 3.981h1.514a2.42 2.42 0 0 0 1.724-.714l.56-.56a2.43 2.43 0 0 0 1.719 1.232 2.772 2.772 0 0 1-1.716 2.226.398.398 0 0 0-.248.369v.345l-.796.265-.796-.265v-.345a.398.398 0 0 0-.249-.37 2.774 2.774 0 0 1-1.712-2.183zm.766 3.583h.733l.521.173-.508.508-.746-.496v-.185zm0 1.142l.576.383a.397.397 0 0 0 .502-.05l.913-.912.913.912a.398.398 0 0 0 .502.05l.575-.383v2.838h-1.592V8.758h-.796v2.787h-1.593v-2.84zm-.796 3.206l-.36 2.346a.982.982 0 0 1-.382-.265.984.984 0 0 1-.23-.784L14.58 12a.395.395 0 0 0 .004-.056V10.35h.796v1.562zm0-2.358h-1.064l.486-1.702a.399.399 0 0 1 .383-.288h.195v1.99zm.398 13.535a.797.797 0 0 1 1.593 0h-1.593zm.398-1.536v-4.037h.797v4.037a1.577 1.577 0 0 0-.398-.056c-.139 0-.27.023-.399.056zm2.389.494c-.245.28-.398.642-.398 1.042 0-.4-.154-.762-.398-1.042v-4.531h.796v4.53zm.398 1.042a.797.797 0 0 1 1.592 0h-1.592zm.398-1.536v-4.037h.796v4.037a1.577 1.577 0 0 0-.398-.056c-.138 0-.27.023-.398.056zm-.796-4.833V14.33h-.796v2.389h-2.323l.674-4.38h4.094l.673 4.38h-2.322zm3.131-2.727a.98.98 0 0 1-.382.265l-.36-2.346V10.35h.796v1.593c0 .018 0 .037.003.056l.174 1.21a.984.984 0 0 1-.231.784zm-.742-4.439v-1.99h.195c.177 0 .334.118.383.288l.486 1.702h-1.064z" fill="#fff"/></svg>
